packages/foundations/assets/icons/functional/images/transportation/scooter_32_inverted.svg

<svg width="32" height="32" viewBox="0 0 32 32" fill="none" xmlns="http://www.w3.org/2000/svg">
<g clip-path="url(#clip0_2214_6752)">
<path fill-rule="evenodd" clip-rule="evenodd" d="M11.847 21.3411C11.9267 23.5938 10.1265 25.35 8.00002 25.35C5.94003 25.35 4.25814 23.7325 4.15503 21.6982V21.3411L3.00002 21.35C2.56669 21.35 2.2091 21.0258 2.15665 20.6066L2.15002 18.5C2.15002 15.894 4.20579 13.7678 6.784 13.6548L12.056 13.65L11.3984 11.4557C11.3845 11.409 11.3388 11.35 11.256 11.35C11.2008 11.35 9.78216 11.35 7.00002 11.35C6.53058 11.35 6.15002 10.9695 6.15002 10.5C6.15002 10.0667 6.51856 9.65002 7.00002 9.65002H11.256C12.022 9.65002 12.7038 10.1221 12.9779 10.8252L15.632 19.65H18.608L24.15 13.184V9.50002C24.15 8.90777 23.701 8.41928 23.1252 8.35678L20 8.35002C19.5306 8.35002 19.15 7.96947 19.15 7.50002C19.15 7.06669 19.4893 6.65002 20 6.65002H23C24.5173 6.65002 25.7585 7.83703 25.8452 9.33262L25.8502 13.5C25.8502 13.6623 25.7914 13.8736 25.6454 14.0532C25.548 14.1729 23.548 16.5062 19.6454 21.0532C19.5108 21.2102 19.2743 21.3589 19 21.35C18.8172 21.3441 16.4328 21.3411 11.847 21.3411ZM26 17.65C28.1265 17.65 29.85 19.3736 29.85 21.5C29.85 23.6265 28.1265 25.35 26 25.35C23.8736 25.35 22.15 23.6265 22.15 21.5C22.15 19.3736 23.8736 17.65 26 17.65ZM5.85002 21.35C5.85002 22.7659 6.81247 23.65 8.00002 23.65C9.13595 23.65 10.2121 22.7687 10.15 21.3411C10.15 21.3471 8.71669 21.35 5.85002 21.35ZM26 19.35C24.8125 19.35 23.85 20.3125 23.85 21.5C23.85 22.6876 24.8125 23.65 26 23.65C27.1876 23.65 28.15 22.6876 28.15 21.5C28.15 20.3125 27.1876 19.35 26 19.35Z" fill="#1A1C1F"/>
</g>
<defs>
<clipPath id="clip0_2214_6752">
<rect width="32" height="32" fill="white"/>
</clipPath>
</defs>
</svg>

<svg xmlns="http://www.w3.org/2000/svg" width="32" height="32" fill="none"><g clip-path="url(#a)"><path fill="#1A1C1F" fill-rule="evenodd" d="M11.847 21.341a3.85 3.85 0 0 1-7.692.357v-.357L3 21.35a.85.85 0 0 1-.843-.743L2.15 18.5a4.85 4.85 0 0 1 4.634-4.845l5.272-.005-.658-2.194a.15.15 0 0 0-.142-.106H7a.85.85 0 0 1-.85-.85c0-.433.369-.85.85-.85h4.256a1.85 1.85 0 0 1 1.722 1.175l2.654 8.825h2.976l5.542-6.466V9.5c0-.592-.449-1.08-1.025-1.143L20 8.35a.85.85 0 0 1 0-1.7h3a2.85 2.85 0 0 1 2.845 2.683l.005 4.167a.9.9 0 0 1-.205.553q-.146.18-6 7a.84.84 0 0 1-.645.297q-.274-.009-7.153-.009M26 17.65a3.85 3.85 0 1 1 0 7.7 3.85 3.85 0 0 1 0-7.7m-20.15 3.7c0 1.416.962 2.3 2.15 2.3 1.136 0 2.212-.881 2.15-2.309q0 .009-4.3.009m20.15-2a2.15 2.15 0 1 0 0 4.3 2.15 2.15 0 0 0 0-4.3" clip-rule="evenodd"/></g><defs><clipPath id="a"><path fill="#fff" d="M0 0h32v32H0z"/></clipPath></defs></svg>
